X:1
T:Je l'ayme bien
T:Jean de Castro
T:Source : La fleur des chansons à 3---Louvain---P.Phalèse---1574. Editor : André Vierendeels (22/08/18) Notes : Original clefs : C1, C3, C4 Original note values have been halved Editorial accidentals above the staff
T:Je l'ayme bien
T:©
T:©
T:©
C:Jean de Castro
Z:©
%%score [ 1 [ 2 3 ] ]
L:1/8
Q:1/4=120
M:2/2
K:F
V:1 treble nm="Soprano" snm="S"
V:2 treble-8 nm="Tenor 1" snm="T 1"
V:3 treble-8 nm="Tenor 2" snm="T 2"
V:1
 A8 | B6 A2 | G2 z d _e3 d | c2 B2 A3 A | =B4 z2 c2 | d3 c B2 A2 | B3 B G2 G2 | A2 G2 ^FGGF | %8
w: Je|l'ay- me|bien, ie l'ay- me|bien et l'ay- me-|ray, ie|l'ay- me bien et|l'ay- me- ray, ie|l'ay- me bien et l'ay- me|
 GBA>A A2 z d | ^cc d2 z ABG | BBAA =B4 | z2 d2 =BcFB | AG A2 z2 d2 | c2 FG AB c2- | cB B4 A2 | %15
w: ray, et l'ay- me- ray, à|ce pro- pos à ce pro-|pos suis et se- ray|à ce pro- pos suis|et se- ray, et|de- meu- * * * *||
 B2 z B dd ^c2 | ddcA ccGG | B2 A2 z BAF | AA G3 F E2 | ^F4 A4 | B6 A2 |"^b" G2 z d e3 d | %22
w: ray, tou- te ma vi|e, et quoy- qu'on m'en die par en-|vy- e, et quoy- qu'on|m'n die par en vi-|e, ie|l'ay- me|bien ie l'ay- me|
 c2 B2 A3 A | =B4 z2 c2 | d3 c B2 A2 | B3 B G2 G2 | A2 G2 ^FGGF | G8 |] %28
w: bien et l'ay- me-|ray, ie|l'ay- me bien et|l'ay- me ray, ie|l'ay- me bien et l'ay- me-|ray.|
V:2
 z2 d2 e2 ^f2 | g2 z d g2 ^f2 | g8- | g4 z2 ^f2 | g3 f e2 f2- | f2 d3 d d2 | z2 d2 _e3 d | %7
w: Je l'ay- me|bien, ie l'ay- me|bien,|_ ie|l'ay- me bien et|_ l'ay- me- ray,|ie l'ay- me|
 c3 B AG A2 | z d^cd efcd | A2 z f efgc | GG d2 z Gdd | A2 z d dcd>e | fg3/2f/4e/4f g2 z g | %13
w: bien et l'ay- me ray,|à ce pro- pos suis et se-|ray, à ce pro- pos suis|et se- ray, suis et se-|ray, à ce propos suis et|se- * * * * ray, et|
 ef de fg a2- | a2 d2 c2 c2 | B G2 g2 f e2 | f2 z f ecee | dg ^f2 g2 z d | cfed ed ^c2 | %19
w: de- * meu- * * * ray,|_ et de- meu-|ray tou- te ma vi-|e, et quoy- qu'on m'en die|par en- vy- e, et|quoy- qu'on en die par en- vy-|
 d2 z d e2 f2 | g2 z d g2 ^f2 | g8- | g4 z2 ^f2 | g3 f e2 f2- | f2 d3 d d2 | z2 d2 _e3 d | %26
w: e, ie l'ay- me|bien, ie l'ay- me|bien,|_ ie|l'ay- me bien et|_ l'ay- me- ray,|ie l'ay- me|
 c3 B AG A2 | =B8 |] %28
w: bien et l'ay- * me-|ray.|
V:3
 d4 ^c2 d2 | G4 z2 d2 | _e3 B c4- | c2 G2 d2 D2 | G4 z2 A2 | B3 A G2 ^F2 | G3 G C4- | C2 C2 D2 D2 | %8
w: Je l'ay- me|bien, ie|l'ay- me bien|_ et l'ay- me-|ray, ie|l'ay- me bien et|l'ay- me- ray,|_ et l'ay- me-|
 G2 z d ^cdef | ee d2 z4 | g2 ^ff g2 z G | ^FF G3 ABG | d4 z2 G2 | A2 B2 F4- | F8 | z B2 G2 D A2 | %16
w: ray, à ce pro- pos suis|et se- ray,|à ce pro- pos, à|ce pro- pos suis et se-|ray, et|de- meu- ray|_|tou- te ma vi-|
 D2 z d cAcc | GG d2 G2 z B | AFc=B cd A2 | D2 d2 ^c2 d2 | G4 z2 d2 | _e3 B c4- | c2 G2 d2 D2 | %23
w: e, et quoy- qu'on m'en die|par en- vy- e, et|quoy- qu'on men die par en- vy-|e, ie l'ay- me|bien, ie|l'ay- me bien|_ et l'ay- me-|
 G4 z2 A2 | B3 A G2 ^F2 | G3 G C4- | C2 C2 D2 D2 | G8 |] %28
w: ray, ie|l'ay- me bien et|m'ay- me ray,,|_ et l'ay- me|ray.|

